X: 3
T: Doonagore
R: reel
M: 4/4
L: 1/8
K: Gmaj
|: DG (3GFG FGAc | BG (3GFG ABcA | d2 cA BG G2 | (3Bcd cA BGAF |
DG (3GFG FGAc | BG (3GFG ABcA | d2 cA BG G2 | (3Bcd cA G3 z :|
|: g3 e fdde | fdgd fd d2 | g3 e fddc | defd g3 z |
g2 ag fddc | B2 BG ABcA | d2 cA BG G2 | (3Bcd cA G3 z :|


Tune 2816	Setting 22652

